X:957
L:1/8
Q:1/4=120
M:2/2
K:G
"^Slow" GA | B2 (AG) G3 e | (d<B)(TAG) E2 (DE) | (GA)(Bc) (d>eg)G | E2 (G>A) G2 :: (gf) | 
 Te3 d (ef)(ga) | (ba)(ge) d3 d | (g>ab)a (ba)(ge) | g2 d>e d2 (ga) | (ba)(ge) Te | 
 (dB)(AG) E2 (DE) | G>AB>c d>egG | E2 (G>A) G2 :|

